x-pack/platform/plugins/shared/content_connectors/public/assets/icons/redis.svg

<svg width="64" height="64" viewBox="0 0 16 16" fill="none" xmlns="http://www.w3.org/2000/svg">
<path d="M15.297 11.8956C14.4525 12.3331 10.078 14.1211 9.14702 14.6036C8.21552 15.0866 7.69802 15.0816 6.96202 14.7321C6.22652 14.3826 1.57102 12.5136 0.732018 12.1151C0.313018 11.9156 0.0930176 11.7476 0.0930176 11.5891V9.99913C0.0930176 9.99913 6.15352 8.68763 7.13202 8.33913C8.11052 7.98963 8.45002 7.97713 9.28252 8.28013C10.1155 8.58363 15.094 9.47663 15.9175 9.77613L15.917 11.3436C15.917 11.5006 15.727 11.6731 15.297 11.8956V11.8956Z" fill="#A41E11"/>
<path d="M15.297 10.3052C14.4525 10.7427 10.078 12.5307 9.14704 13.0137C8.21554 13.4962 7.69804 13.4917 6.96204 13.1417C6.22654 12.7927 1.57104 10.9227 0.732042 10.5247C-0.105958 10.1262 -0.123958 9.85221 0.700042 9.53121C1.52354 9.21071 6.15354 7.40521 7.13204 7.05621C8.11054 6.70721 8.45004 6.69471 9.28254 6.99771C10.1155 7.30121 14.464 9.02171 15.287 9.32121C16.11 9.62121 16.142 9.86771 15.297 10.3052V10.3052Z" fill="#D82C20"/>
<path d="M15.297 9.30315C14.4525 9.74065 10.078 11.5282 9.14702 12.0112C8.21552 12.4937 7.69802 12.4892 6.96202 12.1397C6.22652 11.7897 1.57102 9.92066 0.732018 9.52216C0.313018 9.32316 0.0930176 9.15515 0.0930176 8.99665V7.40665C0.0930176 7.40665 6.15352 6.09515 7.13202 5.74615C8.11052 5.39715 8.45002 5.38466 9.28252 5.68766C10.1155 5.99066 15.094 6.88366 15.9175 7.18316L15.917 8.75065C15.917 8.90815 15.727 9.08065 15.297 9.30315V9.30315Z" fill="#A41E11"/>
<path d="M15.297 7.71264C14.4525 8.15014 10.078 9.93764 9.14704 10.4206C8.21554 10.9036 7.69804 10.8986 6.96204 10.5491C6.22654 10.1996 1.57104 8.33014 0.732042 7.93164C-0.105958 7.53364 -0.123958 7.25914 0.700042 6.93864C1.52354 6.61814 6.15354 4.81214 7.13204 4.46364C8.11054 4.11464 8.45004 4.10164 9.28254 4.40514C10.1155 4.70814 14.464 6.42864 15.287 6.72814C16.11 7.02814 16.142 7.27514 15.297 7.71264V7.71264Z" fill="#D82C20"/>
<path d="M15.297 6.61406C14.4525 7.05156 10.078 8.83956 9.14701 9.32256C8.21551 9.80506 7.69801 9.80006 6.96201 9.45056C6.22651 9.10106 1.57101 7.23156 0.732006 6.83356C0.313506 6.63406 0.0935059 6.46606 0.0935059 6.30756V4.71756C0.0935059 4.71756 6.15401 3.40606 7.13251 3.05756C8.11101 2.70806 8.45051 2.69556 9.28301 2.99906C10.116 3.30206 15.0945 4.19456 15.918 4.49406L15.9175 6.06206C15.9175 6.21906 15.7275 6.39156 15.2975 6.61406H15.297Z" fill="#A41E11"/>
<path d="M15.297 5.0236C14.4525 5.4611 10.078 7.2491 9.14703 7.7321C8.21553 8.2146 7.69803 8.2096 6.96203 7.8601C6.22653 7.5106 1.57103 5.6416 0.732034 5.2431C-0.105466 4.8446 -0.123466 4.5701 0.700034 4.2496C1.52353 3.9291 6.15353 2.1236 7.13203 1.7751C8.11053 1.4251 8.45003 1.4131 9.28253 1.7161C10.1155 2.0196 14.464 3.7401 15.287 4.0396C16.11 4.3396 16.142 4.5861 15.297 5.0236V5.0236Z" fill="#D82C20"/>
<path d="M10.0785 3.49248L8.70752 3.63398L8.40052 4.36798L7.90452 3.54898L6.32152 3.40748L7.50252 2.98398L7.14852 2.33398L8.25452 2.76398L9.29702 2.42398L9.01552 3.09648L10.0785 3.49248ZM8.31852 7.05398L5.75952 5.99898L9.42652 5.43948L8.31852 7.05398Z" fill="white"/>
<path d="M4.77055 5.41063C5.85303 5.41063 6.73055 5.07261 6.73055 4.65563C6.73055 4.23866 5.85303 3.90063 4.77055 3.90063C3.68807 3.90063 2.81055 4.23866 2.81055 4.65563C2.81055 5.07261 3.68807 5.41063 4.77055 5.41063Z" fill="white"/>
<path d="M11.6991 3.69312L13.8691 4.54562L11.7011 5.39712L11.6991 3.69312Z" fill="#7A0C00"/>
<path d="M9.2981 4.63712L11.6991 3.69312L11.7011 5.39712L11.4656 5.48862L9.2981 4.63712Z" fill="#AD2115"/>
</svg>

<svg xmlns="http://www.w3.org/2000/svg" width="64" height="64" fill="none" viewBox="0 0 16 16"><path fill="#A41E11" d="M15.297 11.896c-.844.437-5.219 2.225-6.15 2.708s-1.449.478-2.185.128c-.735-.35-5.391-2.218-6.23-2.617-.419-.2-.639-.367-.639-.526V10s6.06-1.311 7.039-1.66c.979-.35 1.318-.362 2.15-.059.834.304 5.812 1.197 6.636 1.496l-.001 1.568c0 .157-.19.33-.62.552"/><path fill="#D82C20" d="M15.297 10.305c-.844.438-5.219 2.226-6.15 2.709-.931.482-1.449.478-2.185.128-.735-.35-5.391-2.22-6.23-2.617-.838-.399-.856-.673-.032-.994s5.454-2.126 6.432-2.475 1.318-.361 2.15-.058c.834.303 5.182 2.024 6.005 2.323.823.3.855.547.01.984"/><path fill="#A41E11" d="M15.297 9.303c-.844.438-5.219 2.225-6.15 2.708s-1.449.478-2.185.129c-.735-.35-5.391-2.22-6.23-2.618-.419-.199-.639-.367-.639-.525v-1.59s6.06-1.312 7.039-1.66c.979-.35 1.318-.362 2.15-.06.834.304 5.812 1.197 6.636 1.496l-.001 1.568c0 .157-.19.33-.62.552"/><path fill="#D82C20" d="M15.297 7.713c-.844.437-5.219 2.225-6.15 2.708s-1.449.478-2.185.128C6.227 10.2 1.571 8.33.732 7.932c-.838-.398-.856-.673-.032-.993s5.454-2.127 6.432-2.475c.979-.35 1.318-.362 2.15-.059.834.303 5.182 2.024 6.005 2.323.823.3.855.547.01.985"/><path fill="#A41E11" d="M15.297 6.614c-.844.438-5.219 2.226-6.15 2.709-.931.482-1.449.477-2.185.128-.735-.35-5.391-2.22-6.23-2.617-.418-.2-.638-.368-.638-.526v-1.59s6.06-1.312 7.039-1.66c.978-.35 1.318-.362 2.15-.059.833.303 5.812 1.196 6.635 1.495v1.568c0 .157-.19.33-.62.552z"/><path fill="#D82C20" d="M15.297 5.024c-.844.437-5.219 2.225-6.15 2.708s-1.449.478-2.185.128c-.735-.35-5.391-2.218-6.23-2.617C-.105 4.845-.123 4.57.7 4.25c.824-.32 5.454-2.126 6.432-2.475s1.318-.362 2.15-.059c.834.304 5.182 2.024 6.005 2.324s.855.546.01.984"/><path fill="#fff" d="m10.079 3.492-1.371.142-.307.734-.496-.819-1.583-.142 1.18-.423-.353-.65 1.106.43 1.042-.34-.281.672zm-1.76 3.562-2.56-1.055 3.668-.56zM4.77 5.41c1.083 0 1.96-.337 1.96-.754S5.854 3.9 4.77 3.9s-1.96.338-1.96.755.878.755 1.96.755"/><path fill="#7A0C00" d="m11.7 3.693 2.17.853-2.169.851z"/><path fill="#AD2115" d="m9.298 4.637 2.401-.944.002 1.704-.235.092z"/></svg>
